packages/icon/src/svg/transcript.icon.svg

<svg aria-label="transcript icon" viewBox="0 0 24 24"><path fill-rule="evenodd" clip-rule="evenodd" d="M4 3.5c0-.3.2-.5.5-.5h15c.3 0 .5.2.5.5v13c0 .3-.2.5-.5.5H9.3l-4.5 3.4c-.3.2-.8 0-.8-.4v-4.5c0-.3.2-.5.5-.5h1c.3 0 .5.2.5.5V17l2.7-2H18V5H6v6h8V9H8.5c-.3 0-.5-.2-.5-.5v-1c0-.3.2-.5.5-.5h7c.3 0 .5.2.5.5v5c0 .3-.2.5-.5.5h-11c-.3 0-.5-.2-.5-.5v-9z"/></svg>

<svg width="24" height="24" viewBox="0 0 24 24" fill="none" xmlns="http://www.w3.org/2000/svg">
<path fill-rule="evenodd" clip-rule="evenodd" d="M4 3.5C4 3.2 4.2 3 4.5 3H19.5C19.8 3 20 3.2 20 3.5V16.5C20 16.8 19.8 17 19.5 17H9.3L4.8 20.4C4.5 20.6 4 20.4 4 20V15.5C4 15.2 4.2 15 4.5 15H5.5C5.8 15 6 15.2 6 15.5V17L8.7 15H18V5H6V11H14V9H8.5C8.2 9 8 8.8 8 8.5V7.5C8 7.2 8.2 7 8.5 7H15.5C15.8 7 16 7.2 16 7.5V12.5C16 12.8 15.8 13 15.5 13H4.5C4.2 13 4 12.8 4 12.5V3.5Z" fill="white"/>
</svg>
